X:1
T:Title
%%score 1 { ( 2 5 ) | ( 3 4 ) }
L:1/8
Q:1/4=100
M:4/4
K:C
V:1 treble nm="Akkordion"
V:2 bass nm="Grand Piano"
V:5 bass 
V:3 bass 
V:4 bass 
V:1
 z8 | z4 z2 D2 | D2 D2 E2 E2 | G2 G2 z2 G2 | G2 G2 A2 D2 | B4 z2 B2 | B2 B2 c2 ^G2 | B2 A2 z2 A2 | %8
 A2 D2 E2 D2 | D4 z2 D2 | D2 D2 F2 F2 |[M:3/4] E2 E2 z2 |[M:1/4] E2 |[M:4/4] E2 B2 c3 B | %14
 A4 z2 A2 | G2 d2 e3 d |[M:3/4] d2 c2 z2 |[M:1/4] B2 |[M:4/4] B2 E2 B3 A | G6 z2 |] %20
V:2
 [D,G,B,D]2 [G,B,D]2 [G,B,D]2 [G,B,D]2 | [D,G,B,D]2 [G,B,D]2 [G,B,D]2 [G,B,D]2 | %2
w: Maltbie~D.~Babcock * * *||
 [D,G,B,D]2 [G,B,D]2 [E,G,B,E]2 [G,B,E]2 | [D,G,B,D]2 [G,B,D]2 [E,G,B,E]2 [G,B,E]2 | %4
w: ||
 [D,G,B,D]2 [G,B,D]2 [D,^F,CD]2 [F,CD]2 | [D,B,D]2[K:treble] [G,B,D]4 [G,B,D]2 | %6
w: ||
 [A,B,F]2 [A,B,F]2 [^G,DF]2 [G,DE]2 | [B,D]2 E2 E2 E2 | [^F,CE]2 D2[K:treble] E2 ^F2 | %9
w: |||
 G2 ^F2 [G,CE]2 [CD]2 | [E,A,B,D]2 [A,_B,D]2 [F,A,DF]2 [F,A,DF]2 | %11
w: ||
[M:3/4] [E,^G,B,E]2 [E,A,E]2 [E,G,DE]2 |[M:1/4] [E,A,CE]2 | %13
w: ||
[M:4/4] ^G,,2[K:treble] [DEB]2 [DEc]3 [DEB] | z2 [CEA]4 z2 | [EFG]2 [FGd]2 [FGe]3 [FGd] | %16
w: |||
[M:3/4] [Fd]2 [EAc]4 |[M:1/4] [D^GB]2 |[M:4/4] [DGB]2 [^CGB]2 [=CEB]3 [C^FA] | [B,G]6 z2 |] %20
w: ||||
V:3
 z2 D,2 D,2 D,2 | z2 D,2 D,2 D,2 | z2 D,2 z2 E,2 | z2 D,2 z2 E,2 | z2 D,2 z2 D,2 | z2 D,4 D,2 | %6
 [D,,D,]4 [E,,E,]4 | z2 [A,C]2 [G,C]2 [G,C]2 | z2 [^F,C]2 [G,C]2 [A,C]2 | [B,D]2 [A,C]2 z2 ^F,2 | %10
 z2 E,2 D,,2 D,2 |[M:3/4] D,2 C,2 B,,2 |[M:1/4] A,,2 |[M:4/4] ^C,,,2 [^G,,E,]2 [G,,E,]3 [G,,E,] | %14
 [A,,E,]2 E,2 z2 [A,,G,]2 | [B,,G,]2 [B,,G,]2 [B,,G,]3 [C,G,] |[M:3/4] [C,^G,]2 [C,A,]4 | %17
[M:1/4] D,2 |[M:4/4] E,2 A,,2 D,3 D, | G,,8 |] %20
V:4
 G,,8 | G,,8 | G,,4 E,,4 | G,,4 E,,4 | D,,4 D,,4 | G,,8 | x8 | [A,,E,]8 | [D,,A,,]8 | %9
 D,4 [D,,A,,]4 | G,,4 z4 |[M:3/4] x6 |[M:1/4] x2 |[M:4/4] x8 | z2 A,,4 z2 | x8 |[M:3/4] x6 | %17
[M:1/4] x2 |[M:4/4] x8 | x8 |] %20
V:5
 x8 | x8 | x8 | x8 | x8 | x2[K:treble] x6 | x8 | x8 | x4[K:treble] x4 | x8 | x8 |[M:3/4] x6 | %12
[M:1/4] x2 |[M:4/4] x2[K:treble] x6 | [CEA]2 z2 ^F,2 [CEA]2 | x8 |[M:3/4] x6 |[M:1/4] x2 | %18
[M:4/4] x8 | x8 |] %20

